X:1
T:Ich will von meiner Missethat
T:Ich will von meiner Missethat
T:Karl Heinrich Graun
C:Karl Heinrich Graun
%%score [ 1 2 3 4 ]
L:1/8
Q:1/4=120
M:2/2
K:A
V:1 treble nm="Soprano"
V:2 treble nm="Alto"
V:3 treble-8 nm="Tenor"
V:4 bass nm="Bass"
V:1
 A4 | A4 c4 | B4 A4 | B4 B4 | c8 | z4 A4 | c4 d4 | e4 c4 | B8 | A8 :: z4 c4 | c4 c4 | B4 B4 | %13
w: 1.Ich|will von|mei- ner|Mis- se-|that|zum|Her- ren|mich be-|keh-|ren,|und|dei- nes|gu- ten|
w: 2.Du|wol- lest|selbst mir|Hulf' und|Rath|hie-|zu! o|Gott! be-|sche-|ren.||||
 A4 A4 | B8 | z4 c4 | A4 A4 | A4 E4 | A4 B4 | c8 | z4 A4 | c4 d4 | e4 c4 | B8 | A8 |] %25
w: Geis- tes|Kraft,|der|neu- e|Her- zen|in uns|schaft,|aus|Gna- den|mir ge-|wäh-|ren.|
w: ||||||||||||
V:2
 E4 | A4 A4 | G4 A4 | A4 G4 | A8 | z4 F4 | E4 A4 | G4 A4 | A4 G4 | A8 :: z4 A4 | A4 A4 | G4 G4 | %13
w: 1.Ich|will von|mei- ner|Mis- se-|that|zum|Her- ren|mich be-|keh- *|ren,|und|dei- nes|gu- ten|
 E4 E4 | E8 | z4 G4 | A4 F4 | E4 E4 | F4 G4 | A8 | z4 F4 | E4 A4 | G4 A4 | A4 G4 | A8 |] %25
w: Geis- tes|Kraft,|der|neu- e|Her- zen|in uns|schaft,|aus|Gna- den|mir ge-|wäh- *|ren.|
V:3
 c4 | f4 e4 | e4 c4 | f4 e4 | e8 | z4 d4 | c4 f4 | B4 A4 | f4 e2 d2 | c8 :: z4 e4 | f4 e4 | e4 B4 | %13
w: 2.Du|wol- lest|selbst mir|Hulf' und|Rath|hie-|zu! O|Gott! Be-|sche- * *|ren.|und|dei- nes|gu- ten|
 c4 c4 | G8 | z4 c4 | c4 d4 | c4 c4 | c4 e4 | e8 | z4 d4 | c4 f4 | B4 A4 | f4 e2 d2 | c8 |] %25
w: Gei- stes|Kraft,|der|neu- e|Her- zen|in uns|schaft,|aus|Gna- den|mir ge-|wäh- * *|ren.|
V:4
 A,4 | F,4 C,2 D,2 | E,4 F,4 | D,4 E,4 | A,,8 | z4 D,4 | A,4 F,4 | E,4 F,4 | D,4 E,4 | A,,8 :: %10
w: 1.Ich|will von- _|mei- ner|Mis- se-|that|zum|Her- ren|mich be-|keh- *|ren,|
 z4 A,4 | F,4 A,4 | E,4 E,4 | C,4 A,,4 | E,8 | z4 ^E,4 | F,4 D,4 | A,,4 A,4 | F,4 E,4 | A,8 | %20
w: und|dei- nes|gut- en|Geis- tes-|Kraft,|der|neu- e|Her- zen|in uns|schaft,|
 z4 D,4 | A,4 F,4 | E,4 F,4 | D,4 E,4 | A,,8 |] %25
w: aus|Gna- den|mir ge-|wäh- *|ren.|

